dist/svg/resize-nwse.svg

<!-- Generated by Trend Micro Style Portal -->
<svg version="1.1" xmlns="http://www.w3.org/2000/svg" width="16" height="16" viewBox="0 0 16 16">
  <title>resize-nwse</title>
  <path fill="rgb(34,34,34)" d="M15 9v6h-6l2.3-2.3-8-8-2.3 2.3v-6h6l-2.3 2.3 8 8 2.3-2.3z"></path>
</svg>

<svg width="16" height="16" viewBox="0 0 16 16" fill="rgb(34, 34, 34)" xmlns="http://www.w3.org/2000/svg"><title>resize-NWSE</title><path d="M15 9V15H9L11.3 12.7L3.3 4.7L1 7V1H7L4.7 3.3L12.7 11.3L15 9Z" fill="rgb(34, 34, 34)" fill-opacity="1.00"/></svg>
